packages/kaspersky-hexa-ui-icons/src/iconsSVGs/24/KasperskySupportForumSolid.svg

<svg width="24" height="24" viewBox="0 0 24 24" fill="none" xmlns="http://www.w3.org/2000/svg">
<path d="M3.11011 15.8977C3.11011 14.5116 4.24031 13.3879 5.63449 13.3879H10.6425C12.0367 13.3879 13.1669 14.5116 13.1669 15.8977V17.915C13.1669 18.2616 12.8843 18.5425 12.5358 18.5425H3.7412C3.39266 18.5425 3.11011 18.2616 3.11011 17.915V15.8977Z" fill="black"/>
<path d="M10.5709 9.6225C10.5709 10.9581 9.48195 12.0408 8.13861 12.0408C6.79528 12.0408 5.70629 10.9581 5.70629 9.6225C5.70629 8.28689 6.79528 7.20416 8.13861 7.20416C9.48195 7.20416 10.5709 8.28689 10.5709 9.6225Z" fill="black"/>
<path d="M18.265 8.19283C18.265 9.65657 17.0716 10.8432 15.5994 10.8432C14.1272 10.8432 12.9337 9.65657 12.9337 8.19283C12.9337 6.72908 14.1272 5.54248 15.5994 5.54248C17.0716 5.54248 18.265 6.72908 18.265 8.19283Z" fill="black"/>
<path d="M11.6834 12.495C11.4876 12.5721 11.5581 12.8139 11.7687 12.8139C13.1628 12.8139 14.2931 13.9376 14.2931 15.3238V17.9685L20.479 17.9685C20.8276 17.9685 21.1101 17.6876 21.1101 17.341V14.8293C21.1101 13.4431 19.9799 12.3194 18.5857 12.3194H12.6129C12.2847 12.3194 11.9711 12.3817 11.6834 12.495Z" fill="black"/>
</svg>

<svg xmlns="http://www.w3.org/2000/svg" width="24" height="24" fill="none" viewBox="0 0 24 24"><path fill="#000" fill-rule="evenodd" d="M18.265 8.1928c0 1.4638-1.1934 2.6504-2.6656 2.6504s-2.6657-1.1866-2.6657-2.6504 1.1935-2.6503 2.6657-2.6503S18.265 6.729 18.265 8.1928m-7.6941 1.4297c0 1.3356-1.089 2.4183-2.4323 2.4183s-2.4323-1.0827-2.4323-2.4183 1.089-2.4183 2.4323-2.4183 2.4323 1.0827 2.4323 2.4183m1.1125 2.8725c-.1958.0771-.1253.3189.0853.3189 1.3941 0 2.5243 1.1237 2.5243 2.5099v2.6447h6.186c.3486 0 .6311-.2809.6311-.6275v-2.5117c0-1.3862-1.1302-2.5099-2.5244-2.5099h-5.9728c-.3282 0-.6418.0623-.9295.1756m-8.5733 3.4027c0-1.3861 1.1302-2.5098 2.5244-2.5098h5.008c1.3942 0 2.5244 1.1237 2.5244 2.5098v2.0173c0 .3466-.2826.6275-.6311.6275H3.7412c-.3485 0-.631-.2809-.631-.6275z"/></svg>
